X: 21621
M: 2/4
L: 1/16
K: D
V: 1 staves=2
|:!f!\
d4 f4 | e4 z2A2 | {c}B2A2 B2c2 | d4 z2!p!AA |\
!f!d4 f4 | a6 fd | AFAd f2e2 | d6 z2 :|
d4 f4 | e4 z2A2 | {c}B2A2 B2c2 | d4 !p!A3A |\
d6 f2 | a6 fd | AFAd f2e2 | d6 z2 |] \
d4 f4 | e4 z2A2 | B3A B2c2 | d4 z2!f!AA |\
d4 f4 | {f}a6 fd | AFAd f2e2 | d6 z2 |]
V: 2
|:!f!\
!f!F4 d4 |
f6 dA | FDFA d2A2 | F6 z2 :|\


